icons/desktop/16/svg/help-fill-16.svg

<svg width="16" height="16" viewBox="0 0 16 16" fill="none" xmlns="http://www.w3.org/2000/svg">
<path fill-rule="evenodd" clip-rule="evenodd" d="M8 0C12.418 0 16 3.582 16 8C16 12.418 12.418 16 8 16C3.582 16 0 12.418 0 8C0 3.582 3.582 0 8 0ZM8 10.8867C7.51689 10.8867 7.12523 11.2787 7.125 11.7617C7.12507 12.2449 7.51679 12.6367 8 12.6367C8.48321 12.6367 8.87493 12.2449 8.875 11.7617C8.87477 11.2787 8.48311 10.8867 8 10.8867ZM8.45898 3.55176C7.08059 3.30987 5.84995 4.18129 5.52441 5.41895C5.41916 5.8195 5.65905 6.22962 6.05957 6.33496C6.46011 6.44012 6.8703 6.20034 6.97559 5.7998C7.11054 5.28821 7.6182 4.92742 8.19922 5.0293L8.28906 5.0498C8.70431 5.16705 9.03211 5.57304 9.05957 6.0166L9.06055 6.1123C9.04748 6.45536 8.86387 6.69202 8.47656 6.99707L7.77148 7.50293C7.44575 7.73667 7.25015 8.11432 7.25 8.51855V9.13672C7.25006 9.55088 7.58582 9.88672 8 9.88672C8.41417 9.88672 8.74994 9.55088 8.75 9.13672V8.64648L9.37891 8.19629C9.38792 8.18982 9.39754 8.18264 9.40625 8.17578C9.88471 7.79893 10.5206 7.19549 10.5596 6.16895L10.5576 5.93652C10.4919 4.78401 9.62338 3.75644 8.45898 3.55176Z" fill="black"/>
</svg>

<!-- This Source Code Form is subject to the terms of the Mozilla Public
   - License, v. 2.0. If a copy of the MPL was not distributed with this
   - file, You can obtain one at http://mozilla.org/MPL/2.0/. -->
<svg xmlns="http://www.w3.org/2000/svg" width="16" height="16" fill="context-fill" fill-opacity="context-fill-opacity" viewBox="0 0 16 16">
    <path fill-rule="evenodd" d="M8 0a8 8 0 1 1 0 16A8 8 0 0 1 8 0m0 10.887a.875.875 0 1 0 0 1.75.875.875 0 0 0 0-1.75m.459-7.335a2.563 2.563 0 0 0-2.935 1.867.75.75 0 0 0 1.452.38 1.06 1.06 0 0 1 1.223-.77l.09.02a1.1 1.1 0 0 1 .77.968l.002.095c-.014.343-.197.58-.584.885l-.706.506a1.25 1.25 0 0 0-.521 1.016v.618a.75.75 0 0 0 1.5 0v-.49l.629-.45.027-.021c.479-.377 1.115-.98 1.154-2.007l-.002-.232c-.066-1.153-.935-2.18-2.099-2.385" clip-rule="evenodd" />
</svg>
